icons/square-warning-outline.svg

<svg xmlns="http://www.w3.org/2000/svg" width="24" height="24" viewBox="0 0 24 24">
  <path d="M19,2 C20.6568542,2 22,3.34314575 22,5 L22,5 L22,19 C22,20.6568542 20.6568542,22 19,22 L19,22 L5,22 C3.34314575,22 2,20.6568542 2,19 L2,19 L2,5 C2,3.34314575 3.34314575,2 5,2 L5,2 Z M19,4 L5,4 C4.44771525,4 4,4.44771525 4,5 L4,5 L4,19 C4,19.5522847 4.44771525,20 5,20 L5,20 L19,20 C19.5522847,20 20,19.5522847 20,19 L20,19 L20,5 C20,4.44771525 19.5522847,4 19,4 L19,4 Z M12,15 C12.8284271,15 13.5,15.6715729 13.5,16.5 C13.5,17.3284271 12.8284271,18 12,18 C11.1715729,18 10.5,17.3284271 10.5,16.5 C10.5,15.6715729 11.1715729,15 12,15 Z M12,6 C12.5522847,6 13,6.44771525 13,7 L13,12 C13,12.5522847 12.5522847,13 12,13 C11.4477153,13 11,12.5522847 11,12 L11,7 C11,6.44771525 11.4477153,6 12,6 Z"/>
</svg>

<svg xmlns="http://www.w3.org/2000/svg" viewBox="0 0 24 24">
  <path d="M19 2a3 3 0 0 1 3 3v14a3 3 0 0 1-3 3H5a3 3 0 0 1-3-3V5a3 3 0 0 1 3-3zm0 2H5a1 1 0 0 0-1 1v14a1 1 0 0 0 1 1h14a1 1 0 0 0 1-1V5a1 1 0 0 0-1-1zm-7 11a1.5 1.5 0 1 1 0 3 1.5 1.5 0 0 1 0-3zm0-9a1 1 0 0 1 1 1v5a1 1 0 0 1-2 0V7a1 1 0 0 1 1-1z"/>
</svg>
